icon/pk/effects.svg

<svg viewBox="0 0 48 48" fill="none" xmlns="http://www.w3.org/2000/svg" height="1em" width="1em">
  <path d="M24.9507 42.3603L30.4164 30.3695L43.1046 26.6501L33.3383 17.7699L33.7059 4.60732L22.2044 11.1099L9.74329 6.69439L12.4013 19.5934L4.33228 30.027L17.4766 31.4965L24.9507 42.3603Z" fill="#2F88FF" stroke="black" stroke-width="4" stroke-linecap="round" stroke-linejoin="round"/>
  <path d="M36.1777 36.0537L44.1777 44.0179" stroke="black" stroke-width="4" stroke-linecap="round" stroke-linejoin="round"/>
</svg>

<svg width="48" height="48" fill="none" xmlns="http://www.w3.org/2000/svg"><path d="m24.95 42.36 5.466-11.99 12.689-3.72-9.767-8.88.368-13.163-11.502 6.503-12.46-4.416 2.657 12.9-8.069 10.433 13.145 1.47L24.95 42.36Z" fill="#2F88FF" stroke="#000" stroke-width="4" stroke-linecap="round" stroke-linejoin="round"/><path d="m36.178 36.054 8 7.964" stroke="#000" stroke-width="4" stroke-linecap="round" stroke-linejoin="round"/></svg>
